material/.icons/material/flag-minus.svg

<svg xmlns="http://www.w3.org/2000/svg" viewBox="0 0 24 24"><path d="M12.4 5H18v10h-7l-.4-2H5v7H3V3h9l.4 2M14 17h8v2h-8v-2z"/></svg>

<?xml version="1.0" encoding="UTF-8"?><!DOCTYPE svg PUBLIC "-//W3C//DTD SVG 1.1//EN" "http://www.w3.org/Graphics/SVG/1.1/DTD/svg11.dtd"><svg xmlns="http://www.w3.org/2000/svg" xmlns:xlink="http://www.w3.org/1999/xlink" version="1.1" id="mdi-flag-minus" width="24" height="24" viewBox="0 0 24 24"><path d="M12.4,5H18V15H11L10.6,13H5V20H3V3H12L12.4,5M14,17H22V19H14V17Z" /></svg>
